48x48/apps/pac.svg

<svg xmlns="http://www.w3.org/2000/svg" width="48" height="48" version="1"><path style="opacity:.2" d="m16 42-4-4H7c-1.662 0-3-1.338-3-3V11c0-1.662 1.338-3 3-3h34c1.662 0 3 1.338 3 3v24c0 1.662-1.338 3-3 3h-5l-4 4z"/><path style="fill:#2c80c2" d="m16 41-4-4H7c-1.662 0-3-1.338-3-3V10c0-1.662 1.338-3 3-3h34c1.662 0 3 1.338 3 3v24c0 1.662-1.338 3-3 3h-5l-4 4z"/><path style="opacity:.5" d="m20 35-4.5-4H10V13h28v18h-6l-4 4z"/><g style="fill:#f8c44e"><path d="M15 16h2v-3h-2zM19 16h2v-3h-2zM23 16h2v-3h-2zM27 16h2v-3h-2zM31 16h2v-3h-2z"/></g><path style="fill:#f4f4f7;opacity:.2" d="M7 7c-1.662 0-3 1.338-3 3v1c0-1.662 1.338-3 3-3h34c1.662 0 3 1.338 3 3v-1c0-1.662-1.338-3-3-3H7z"/><path style="opacity:.2;fill:#f4f4f7" d="M10 31v1h5.5l4.5 4h8l4-4h6v-1h-6l-4 4h-8l-4.5-4z"/></svg>

<svg xmlns="http://www.w3.org/2000/svg" width="48" height="48" version="1">
 <path style="opacity:0.2" d="M 16,42 12,38 H 7 C 5.338,38 4,36.662 4,35 V 11 C 4,9.338 5.338,8 7,8 H 41 C 42.662,8 44,9.338 44,11 V 35 C 44,36.662 42.662,38 41,38 H 36 L 32,42 Z"/>
 <path style="fill:#2c80c2" d="M 16,41 12,37 H 7 C 5.338,37 4,35.662 4,34 V 10 C 4,8.338 5.338,7 7,7 H 41 C 42.662,7 44,8.338 44,10 V 34 C 44,35.662 42.662,37 41,37 H 36 L 32,41 Z"/>
 <path style="opacity:0.5" d="M 20,35 15.5,31 H 10 V 13 H 38 V 31 H 32 L 28,35 Z"/>
 <g style="fill:#f8c44e" transform="scale(1,-1)">
  <rect width="2" height="3" x="15" y="-16"/>
  <rect width="2" height="3" x="19" y="-16"/>
  <rect width="2" height="3" x="23" y="-16"/>
  <rect width="2" height="3" x="27" y="-16"/>
  <rect width="2" height="3" x="31" y="-16"/>
 </g>
 <path style="fill:#f4f4f7;opacity:0.2" d="M 7 7 C 5.338 7 4 8.338 4 10 L 4 11 C 4 9.338 5.338 8 7 8 L 41 8 C 42.662 8 44 9.338 44 11 L 44 10 C 44 8.338 42.662 7 41 7 L 7 7 z"/>
 <path style="opacity:0.2;fill:#f4f4f7" d="M 10,31 V 32 H 15.5 L 20,36 H 28 L 32,32 H 38 V 31 H 32 L 28,35 H 20 L 15.5,31 Z"/>
</svg>
